X: 1
T: Gella Bridge
M: 2/4
L: 1/8
R: polka
K: Gmaj
DG BG|cG BG|c/B/A B/A/G|AF ED|
DG BG|cG BG|AF E/D/E|DG G2:||
gd Bd|gd Bd|AB cB/c/|ed ef|
gd Bd|gd BG|AF D/E/F|AG G2:||
